!!!!SEGMENT: pl-wumfc--r286_paderewski-ignacy-jan--exercise.krn
!!!cenid: 18xx:3206
!!!COM: Paderewski, Ignacy Jan
!!!COM-rismid: pe30029943
!!!CDT: 1860/11/18-1941/06/29
!!!CNT: Polish
!!!OTL: [Exercise]
!!!PDT:
!!!AGN:
!!!SMS-siglum: PL-Wumfc
!!!SMS-shelfmark: R286
!!!SMS-shelfwork: W
!!!SMS-variant:
!!!SMS-altvar:
!!!NIFC-rismid: 1001159462
!!!URL-scan: http://repozytorium.nifc.pl/skany/pl-wumfc--r286
!!!ONB-nifc:
!!!key: D
**kern	**dynam	**kern	**dynam
*part2	*part2	*part1	*part1
*staff2	*	*staff1	*
*I"2 Clarinetti in A.	*	*I"2 Flauti	*
*Iclars	*	*Iflt	*
*ICww	*	*ICww	*
*clefG2	*	*clefG2	*
*ITrd2c3	*	*	*
*k[f#c#]	*	*k[f#c#]	*
*D:	*	*D:	*
*M4/4	*	*M4/4	*
=1	=1	=1	=1
4r	.	1r	.
!LO:TX:a:t=Cl. 1º	!	!	!
[4a^/	.	.	.
(8a/L]	.	.	.
8b/	.	.	.
8a/	.	.	.
8e/J	.	.	.
=2	=2	=2	=2
4a/)	.	4r	.
!	!	!LO:TX:a:t=Fl. 1º	!
4r	.	[>4aa^/	.
2r	.	8aa/L]	.
.	.	8bb/	.
.	.	8aa/	.
.	.	8ee/J	.
=3	=3	=3	=3
1r	.	(>16aa/LL	<
.	.	16bb/	.
.	.	16aa/	.
.	.	16ee/JJ	.
.	.	16aa/LL	.
.	.	16bb/	.
.	.	16aa/	.
.	.	16ee/JJ	.
.	.	16aa/LL	.
.	.	16bb/	.
.	.	16eee/	[
.	.	16ccc#/JJ	.
.	.	16aa/LL	.
.	.	16bb/	.
.	.	16aa/	.
.	.	16ee/JJ	.
=4	=4	=4	=4
4r	.	16cc#/LL	.
.	.	16dd/	.
.	.	16cc#/	.
.	.	16b/JJ)	.
!LO:TX:a:t=1o.	!	!	!
(16a/LL	.	4r	.
16b/	.	.	.
16a/	.	.	.
16e/JJ	.	.	.
16a/LL	.	2r	.
16b/	.	.	.
16a/	.	.	.
16e/JJ	.	.	.
16a/LL	.	.	.
16b/	.	.	.
16a/	.	.	.
16e/JJ)	.	.	.
=5	=5	=5	=5
(16a/LL	.	1r	.
16b/	.	.	.
16ee/	.	.	.
16cc#/JJ	.	.	.
16a/LL	.	.	.
16b/	.	.	.
16a/	.	.	.
16e/JJ	.	.	.
8a/L	.	.	.
8b/	.	.	.
8ee/	.	.	.
8cc#/J)	.	.	.
!!LO:LB:g=original
=6	=6	=6	=6
*^	*	*	*
!LO:N:vis=1	!	!	!	!
4a/@	4r	.	1r	.
!LO:TX:b:t=IIº	!	!	!	!
4r	(4a\	.	.	.
2r	4g#\	.	.	.
.	4gX\	.	.	.
=7	=7	=7	=7	=7
*	*	*	*^	*
2a/	2f#\)	.	1r	4r	.
.	.	.	.	(>4aa\	.
4b/	4e\	.	.	4gg\	.
4cc#/	4a\	.	.	4ee\	.
*	*	*	*v	*v	*
=8	=8	=8	=8	=8
4dd/	2d\	.	4ff#\)	.
4a/	.	.	(4ff#\	.
4g/	4e\	.	4ee\	.
8a/L	4A\	.	4cc#\)	.
8g/J	.	.	.	.
=9	=9	=9	=9	=9
*	*	*	*^	*
1f#	4d\	.	4r	1dd	.
.	4c#\	.	(4dd/	.	.
.	4B\	.	4ddd/	.	.
.	4A\	.	4ccc#/	.	.
=10	=10	=10	=10	=10	=10
4g/	4G\	.	4bb/	4dd\	.
4f#/	4B\	.	4aa/	4dd#X\	.
4e/	4e\	.	4gg#X/	2ee\	.
4a/	4c#\	.	4ggn/	.	.
=11	=11	=11	=11	=11	=11
1a	4d\	.	4ff#/)	1dd	.
.	4d\	.	(4ff#/	.	.
.	2f#\	.	4aa/	.	.
.	.	.	4dd/	.	.
=12	=12	=12	=12	=12	=12
(8a/L	2.A\	.	2.ee/)	2.cc#\	.
8e/	.	.	.	.	.
8c#/	.	.	.	.	.
8d/J	.	.	.	.	.
4e/	.	.	.	.	.
8f#/L	4r	.	4ree	4r	.
8g#/J)	.	.	.	.	.
!!LO:LB:g=original
=13	=13	=13	=13	=13	=13
1a	4r	.	4r	2cc#\	.
.	4r	.	(4ee/	.	.
.	.	.	8qff#/	.	.
.	4r	.	8ee/L	2ccn\	.
.	.	.	8dd#X/	.	.
.	4r	.	8ee/	.	.
.	.	.	8ff#/J)	.	.
=14	=14	=14	=14	=14	=14
.	.	.	(>8qaa/	.	.
1e	4r	.	8gg/L	[1b	.
.	.	.	8ff#/	.	.
.	4r	.	8gg/	.	.
.	.	.	8aa/J	.	.
.	(>8qA\	.	.	.	.
.	8G\L	.	[2bbtt/)	.	.
.	8F#\	.	.	.	.
.	8G\	.	.	.	.
.	8A\J)	.	.	.	.
=15	=15	=15	=15	=15	=15
!	!	!LO:HP:a	!	!	!
8d#X/L	8B\L	<	1bbttt_	1b]	.
8c#/	8A#X\	.	.	.	.
8d#/	8B\	.	.	.	.
8e/J	8c#\J	.	.	.	.
!	!LO:ACC:color=grey	!	!	!	!
8f#/L	8d#X\L	.	.	.	.
8g/	8e\	[	.	.	.
8an/	8f#\	.	.	.	.
8f#/J	8d#\J	.	.	.	.
=16	=16	=16	=16	=16	=16
(8g/L	2.e\	.	4.bbttt/]	(>8b\L	.
8f#/	.	.	.	8dd#X\	.
8g/	.	.	.	8ee\	.
8a/J	.	.	8r	8ff#\J)	.
2b/)	.	.	4r	4gg\	.
.	4r	.	4r	4ff#\	.
=17	=17	=17	=17	=17	=17
(1ccX	2r	.	4r	2ee\	.
.	.	.	4gg/	.	.
.	.	.	(>(<8qaa/	.	.
.	2r	.	8gg/L)	2ee-X\	.
.	.	.	8ff#/	.	.
.	.	.	8gg/	.	.
.	.	.	8aa/J)	.	.
=18	=18	=18	=18	=18	=18
.	.	.	(>(<8qcccn/	.	.
1b)	4r	.	8bb/L)	[1dd	.
.	.	.	8aa/	.	.
.	4r	.	8bb/	.	.
.	.	.	8ccc/J)	.	.
.	(>(>8qcX\	.	.	.	.
.	8B\L)	.	[2dddTT/	.	.
.	8A\	.	.	.	.
.	8B\	.	.	.	.
.	8cny\J)	.	.	.	.
!!LO:LB:g=original
=19	=19	=19	=19	=19	=19
8f#/L	8d\L	.	1dddTT_	1dd]	.
8e/	8c#\	.	.	.	.
8f#/	8d\	.	.	.	.
8g/J	8e\J	.	.	.	.
8a/L	8f#\L	.	.	.	.
8b/	8g\	.	.	.	.
8ccX/	8a\	.	.	.	.
8a/J	8f#\J	.	.	.	.
=20	=20	=20	=20	=20	=20
8b/L	1g	.	2dddTTT/]	8dd\L	.
8a/	.	.	.	8ff#\	.
8b/	.	.	.	8gg\	.
8ccX/J	.	.	.	8aa\J	.
4.dd/	.	.	8ddd/L	2bb\	.
.	.	.	8ccc#X/	.	.
.	.	.	8ddd/	.	.
8cc#/	.	.	8eee/J	.	.
=21	=21	=21	=21	=21	=21
16cc#/LL	[2f#\	.	16fff#/LL	16aa#X\LL	.
16dd/	.	.	16ggg/	16bb\	.
16cc#/	.	.	16fff#/	16aa#\	.
16dd/JJ	.	.	16ggg/JJ	16bb\JJ	.
16cc#/LL	.	.	16fff#/LL	16aa#\LL	.
16dd/	.	.	16ggg/	16bb\	.
16cc#/	.	.	16fff#/	16aa#\	.
16dd/JJ	.	.	16ggg/JJ	16bb\JJ	.
2cc#/	8f#\L]	.	2fff#/	2aa#\	.
.	8F#'>\	.	.	.	.
.	8c#'>\	.	.	.	.
.	8e#X'>\J	.	.	.	.
=22	=22	=22	=22	=22	=22
16cc#/LL	[2f#\	.	16fff#/LL	16aa#X\LL	.
16dd/	.	.	16ggg/	16bb\	.
16cc#/	.	.	16fff#/	16aa#\	.
16dd/JJ	.	.	16ggg/JJ	16bb\JJ	.
16cc#/LL	.	.	16fff#/LL	16aa#\LL	.
16dd/	.	.	16ggg/	16bb\	.
16cc#/	.	.	16fff#/	16aa#\	.
16dd/JJ	.	.	16ggg/JJ	16bb\JJ	.
2cc#/	8f#\L]	.	2fff#/	2aa#\	.
.	8F#'>\	.	.	.	.
.	8c#'>\	.	.	.	.
.	8e#X'>\J	.	.	.	.
=23	=23	=23	=23	=23	=23
(16cc#/LL	2f#\	.	(16fff#/LL	(16aa#X\LL	.
16dd/	.	.	16ggg/	16bb\	.
16cc#/	.	.	16fff#/	16aa#\	.
16ccX/JJ	.	.	16fffn/JJ	16aan\JJ	.
16b/LL	.	.	16eee/LL	16gg#X\LL	.
16cc/	.	.	16fff/	16aa\	.
16b/	.	.	16eee/	16gg#\	.
16b-X/JJ	.	.	16eee-X/JJ	16ggn\JJ	.
16a/LL	[2F#\	.	16ddd/LL	16ff#\LL	.
16b-/	.	.	16eee-/	16gg\	.
16a/	.	.	16ddd/	16ff#\	.
16g#/JJ	.	.	16ddd-X/JJ	16ffn\JJ	.
16gX/LL	.	.	16cccn/LL	16ee\LL	.
16g#/	.	.	16ddd-/	16ff\	.
16gX/	.	.	16ccc/	16ee\	.
!LO:ACC:color=grey	!	!	!LO:ACC:color=grey	!	!
16f#X/JJ)	.	.	16bbn/JJ)	16dd#X\JJ)	.
!!LO:LB:g=original
=24	=24	=24	=24	=24	=24
(16e#X/LL	1F#]	.	(16aa#X/LL	(16cc##X\LL	.
16f#/	.	.	16bb/	16dd#X\	.
16e#/	.	.	16aa#/	16cc##\	.
16e/JJ	.	.	16aan/JJ	16cc#X\JJ	.
16d/LL@	.	.	16gg#X/LL	16b#X\LL	.
16en/	.	.	16aa/	16cc#\	.
16d/@	.	.	16gg#/	16b#\	.
!LO:ACC:color=grey	!	!	!	!	!
16dn/JJ	.	.	16ggn/JJ	16bn\JJ	.
16c#/LL	.	.	16ff#/LL	16a#X\LL	.
16d/	.	.	16gg/	16b\	.
16c#/	.	.	16ff#/	16a#\	.
16d/JJ	.	.	16gg/JJ)	16b\JJ	.
4c#/)	.	.	4ff#/	4a#\)	.
=25	=25	=25	=25	=25	=25
(16c#/LL	2F#\	.	(16ff#/LL	(16a#X\LL	.
16d/	.	.	16gg/	16b\	.
16c#/	.	.	16ff#/	16a#\	.
16d/JJ	.	.	16gg/JJ	16b\JJ	.
4c#/)	.	.	4ff#/)	4a#\)	.
(16c#/LL	2A\	.	(16ff#/LL	(16an\LL	.
16d/	.	.	16gg/	16b\	.
16c#/	.	.	16ff#/	16a\	.
16d/JJ	.	.	16gg/JJ	16b\JJ	.
4c#/)	.	.	4ff#/)	4a\)	.
=26	=26	=26	=26	=26	=26
2c#/	2A\	.	16ee/LL	2a\	.
.	.	.	16ff#/	.	.
.	.	.	16gg/	.	.
.	.	.	16aa/JJ	.	.
.	.	.	[2.aaT/	.	.
(8c#/L	[2A\	.	.	(8a\L	.
8d/	.	.	.	8b\	.
8e/	.	.	.	8cc#\	.
16f#/L	.	.	.	16dd\L	.
16g/JJ	.	.	.	16ee\JJ	.
=27	=27	=27	=27	=27	=27
2a/)	4A\]	.	1aa_	8ff#\)	.
.	.	.	.	8r	.
.	4f#\	.	.	4aa\	.
4b/	4e\	.	.	4gg\	.
4cc#/	4a\	.	.	4ee\	.
=28	=28	=28	=28	=28	=28
4dd/	2d\	.	1aa_	4ff#\	.
4a/	.	.	.	4ff#\	.
4g/	4e\	.	.	4ee\	.
8a/L	4A\	.	.	4cc#\	.
8g/J	.	.	.	.	.
!!LO:LB:g=original
=29	=29	=29	=29	=29	=29
!	!	!	!LO:S:color=grey	!	!
1f#	4d\	.	(2aa/]	[1dd	.
.	4c#\	.	.	.	.
*	*	*	*Xtuplet	*	*
.	4B\	.	12ddd/L)	.	.
.	.	.	12eee/	.	.
.	.	.	12ddd/J	.	.
.	4A\	.	12ccc#/L	.	.
.	.	.	12ddd/	.	.
.	.	.	12ccc#/J	.	.
=30	=30	=30	=30	=30	=30
4g/	4G\	.	12bb/L	4dd\]	.
.	.	.	12ccc#/	.	.
.	.	.	12bb/J	.	.
4f#/	4B\	.	12aa#X/L	4dd#X\	.
.	.	.	12bb/	.	.
.	.	.	12aan/J	.	.
4e/	4E\	.	12gg#X/L	4ee\	.
.	.	.	12aa/	.	.
.	.	.	12gg#/J	.	.
4e/	4A\	.	12ggn/L	4cc#\	.
.	.	.	12aa/	.	.
.	.	.	12gg/J	.	.
=31	=31	=31	=31	=31	=31
4d/	2d\	.	4ff#/	2dd\	.
4f#/	.	.	4aa/	.	.
4b/	4E\	.	4gg/	4ee\	.
8a/L	4A\	.	8ff#/L	4cc#\	.
8g/J	.	.	8ee/J	.	.
=32	=32	=32	=32	=32	=32
4f#/	2d\	.	2dd/	4dd\	.
4g/	.	.	.	4b\	.
2f#/	2d\	.	2dd/	2a\	.
*v	*v	*	*	*	*
*	*	*v	*v	*
==	==	==	==
*-	*-	*-	*-
!!!system-decoration: {(s1,s2)}
!!!RDF**kern: > = above
!!!RDF**kern: @ = marked note, color=grey
!!!ENC: Filip Voros
!!!END: 2021-11-13
!!!ENC: Marta Lawrence
!!!END: 2021-11-15
